src/assets/images/sponsors/hexschool.svg

<svg fill="none" height="240" viewBox="0 0 300 240" width="300" xmlns="http://www.w3.org/2000/svg" xmlns:xlink="http://www.w3.org/1999/xlink"><clipPath id="a"><path d="m50 35h200v170h-200z"/></clipPath><path d="m0 0h300v240h-300z" fill="#fff"/><g clip-path="url(#a)" fill="#00251a"><path d="m208.837 83.2276-24.429-42.1808c-1.926-3.3259-6.655-6.0468-10.507-6.0468h-48.859c-3.853 0-8.58 2.7209-10.506 6.0468l-24.4298 42.1808c-1.9258 3.3259-1.9258 8.7677 0 12.0937l24.4298 42.1807c1.926 3.326 6.655 6.047 10.506 6.047h48.859c3.853 0 8.581-2.721 10.507-6.047l24.429-42.1807c1.926-3.326 1.926-8.7678 0-12.0937zm-9.812 8.1218-22.975 39.6676c-.517.893-2.572 2.075-3.605 2.075h-45.948c-1.033 0-3.089-1.182-3.605-2.075l-22.9749-39.6676c-.5168-.8928-.5168-3.2588 0-4.15l22.9749-39.6675c.516-.8928 2.572-2.075 3.605-2.075h45.948c1.033 0 3.088 1.1822 3.605 2.075l22.975 39.6675c.516.8928.516 3.2572 0 4.15z"/><path d="m149.47 89.9824h-36.304v7.6804h36.304z"/><path d="m149.47 103.757h-29.186v7.68h29.186z"/><path d="m149.47 117.533h-22.067v7.681h22.067z"/><path d="m88.0739 175.09v.088c0 .8-.4019 1.2-1.204 1.2h-35.6659c-.8021 0-1.204-.4-1.204-1.2v-.088c0-.8.4019-1.201 1.204-1.201h15.5603v-7.067c0-.799.4018-1.2 1.204-1.2h2.1406c.8021 0 1.204.401 1.204 1.2v7.067h15.5603c.8021 0 1.204.401 1.204 1.201zm-24.3426 9.065c-2.0964 6.667-5.0375 12.844-9.0957 18.8-.4462.621-.9809.711-1.6502.354l-1.3828-.755c-.7135-.401-.848-.978-.4019-1.645 3.3873-5.2 6.1972-11.289 8.2919-18.132.2231-.756.7579-1.022 1.5157-.756l1.9619.667c.7135.223.9809.756.7578 1.467zm13.9543-1.733c3.7449 6.444 6.9994 12.71 9.6305 18.799.3116.712.0886 1.289-.625 1.601l-1.783.756c-.7136.31-1.2483.044-1.56-.668-2.8083-6.666-5.9298-12.888-9.14-18.577-.4019-.711-.2231-1.288.4462-1.645l1.4271-.755c.6693-.355 1.204-.178 1.6059.489z"/><path d="m117.454 166.201c-.179.356-.356.799-.625 1.334h13.464c.802 0 1.204.401 1.204 1.2v.089c0 .621-.133 1.022-.491 1.511-.98 1.2-2.408 2.666-4.235 4.4h12.083c.802 0 1.204.4 1.204 1.2v23.288c0 4.711-.579 5.332-5.886 5.332-.534 0-2.363-.088-5.395-.178-.802-.044-1.248-.445-1.248-1.2-.044-.756.402-1.156 1.248-1.11 2.853.088 4.459.222 4.905.222 1.917 0 1.962-.044 1.962-2.934v-5.111h-24.701c-.623 3.645-1.917 6.977-4.1 10.177-.447.667-1.07.756-1.695.267l-1.292-1.066c-.579-.489-.67-1.022-.312-1.645 2.72-4.445 3.789-9.733 3.789-18.888v-3.601l-1.873 1.511c-.669.533-1.293.401-1.65-.355l-.447-.889c-.311-.667-.223-1.156.358-1.645 4.147-3.467 7.401-7.821 9.763-12.977.312-.667.802-.889 1.516-.755l1.65.31c.848.179 1.16.756.802 1.511zm-6.153 25.866h9.54v-6.622h-9.095c-.045 2.4-.179 4.533-.447 6.622zm9.54-15.066h-9.095v6.31h9.095zm-8.872-2.266h10.209c1.427-1.289 3.031-2.934 4.86-5.022h-11.457c-.847 1.423-2.006 3.066-3.612 5.022zm23.673 2.266h-10.433v6.31h10.433zm0 8.444h-10.433v6.622h10.433z"/><path d="m189.143 188.511c0 .667-.223 1.066-.802 1.422-2.943 1.822-6.509 3.601-10.655 5.289h17.299c.802 0 1.204.4 1.204 1.2 0 .667-.402 1.022-1.204 1.022h-16.005v4.532c0 2.577-.669 3.022-5.841 3.022-1.784 0-3.834-.044-6.198-.178-.713-.044-1.159-.445-1.204-1.2-.044-.756.402-1.156 1.249-1.111 2.898.089 4.77.223 5.662.223 1.962 0 1.739.222 1.739-1.822v-3.466h-17.299c-.802 0-1.204-.401-1.204-1.2 0-.668.402-1.022 1.204-1.022h17.299v-.844c0-.8.402-1.2 1.204-1.2h1.248c2.185-.89 4.593-2.044 7.534-3.599h-20.242c-.802 0-1.204-.401-1.204-1.201 0-.533.402-.845 1.204-.845h23.808c.802 0 1.204.356 1.204.978zm-29.916-20.533c2.541-.266 5.528-.8 8.961-1.467.802-.178 1.293.179 1.427.89.133.711-.179 1.2-.981 1.332-2.006.401-4.056.712-6.018 1.022l.088 2.401h5.573c.802 0 1.204.401 1.204 1.2 0 .357-.402.533-1.204.533h-5.484l.134 3.244h5.35c.802 0 1.204.401 1.204 1.201 0 .354-.402.577-1.204.577h-5.261l.134 3.376h25.77l.089-3.376h-5.216c-.803 0-1.204-.401-1.204-1.2 0-.355.401-.578 1.204-.578h5.304l.089-3.244h-5.395c-.802 0-1.204-.4-1.204-1.2 0-.357.402-.533 1.204-.533h5.484l.134-3.112h-5.885c-.803 0-1.205-.4-1.205-1.2 0-.577.402-.89 1.205-.89h9.228c.802 0 1.248.445 1.204 1.245l-.623 14.088h1.427c.802 0 1.204.401 1.204 1.201v4.889c0 .799-.402 1.2-1.204 1.2h-2.006c-.802 0-1.204-.401-1.204-1.2v-4.044h-31.031v4.044c0 .799-.401 1.2-1.204 1.2h-2.006c-.802 0-1.204-.401-1.204-1.2v-4.889c0-.8.402-1.201 1.204-1.201h1.383l-.579-13.02c-.044-.756.356-1.201 1.114-1.289zm22.113-.978c-.669.667-1.471 1.379-2.496 2.178l2.408 1.645c.669.489.757 1.066.223 1.689l-.535.668.044.044c.847.31 1.025.977.402 1.599-.669.711-1.516 1.422-2.541 2.222l2.408 1.645c.67.489.714 1.022.223 1.689l-.134.178c-.491.623-1.07.668-1.739.179-1.338-.978-2.364-1.69-3.031-2.178-1.204.711-2.764 1.51-4.592 2.222-.669.266-1.159.132-1.65-.311-.579-.533-.402-1.11.446-1.467 1.07-.489 2.23-1.11 3.478-1.867-1.293-.755-2.364-1.378-3.21-1.777-.758-.401-.937-.978-.402-1.645l.358-.445-.535-.489c-.669-.621-.535-1.289.311-1.645 1.07-.445 2.23-1.066 3.478-1.867-1.293-.756-2.364-1.379-3.21-1.778-.758-.4-.893-.978-.402-1.645.358-.489.848-.577 1.516-.266 1.827.799 3.21 1.511 4.279 2.134.714-.578 1.472-1.245 2.318-2.134.446-.533.981-.668 1.65-.401l.535.222c.846.355 1.025.978.402 1.601zm-9.719 6.09c2.051.933 3.657 1.821 4.815 2.488.846-.667 1.827-1.601 2.942-2.889-.802-.533-1.694-1.2-2.808-1.956-1.248.756-2.898 1.555-4.949 2.357z"/><path d="m223.295 170.334c-2.364 6-3.433 8.134-4.279 10.266 3.254 3.955 4.012 6.356 4.012 9.867 0 3.733-1.783 5.644-6.242 5.644-.669 0-1.069-.355-1.204-1.066-.133-.711.268-1.156 1.116-1.156h-.356c1.917 0 2.675-.8 2.675-4.088s-.892-5.288-3.254-8.4c-.446-.533-.491-1.022-.223-1.645 1.427-3.244 2.987-6.8 4.056-10.534h-5.305v34.265c0 .8-.402 1.201-1.204 1.201h-1.515c-.802 0-1.204-.401-1.204-1.201v-35.198c0-.8.402-1.2 1.204-1.2h10.834c.802 0 1.204.4 1.204 1.2v.533c0 .533-.088.934-.312 1.511zm25.145 15.822c0 .8-.402 1.2-1.204 1.2h-6.109v12.4c0 2.044-.311 2 2.185 2 1.427 0 1.65 0 2.097-1.2.178-.489.356-2.445.446-5.645.044-.844.49-1.244 1.292-1.156l1.739.178c.758.088 1.116.489 1.116 1.289-.045 1.332-.045 2.133-.179 3.466-.133 1.733-.133 3.511-1.605 4.667-.534.445-1.427.489-2.006.623-.402.088-2.363.132-3.031.132-5.572 0-6.465-.533-6.465-3.244v-13.51h-2.585c-.088 9.288-2.987 13.6-12.127 17.067-.669.266-1.204.088-1.606-.533l-.133-.267c-.446-.711-.223-1.288.535-1.599 6.553-2.623 8.827-6.356 9.006-14.666h-4.147c-.802 0-1.204-.401-1.204-1.2 0-.756.402-1.156 1.204-1.156h21.579c.802 0 1.204.4 1.204 1.156zm.625-14.844v5.955c0 .8-.402 1.201-1.204 1.201h-2.051c-.802 0-1.204-.401-1.204-1.201v-4.889h-16.362v4.889c0 .8-.402 1.201-1.204 1.201h-1.917c-.803 0-1.204-.401-1.204-1.201v-5.955c0-.799.401-1.2 1.204-1.2h8.605v-3.733c0-.8.402-1.2 1.204-1.2h2.14c.803 0 1.204.4 1.204 1.2v3.733h9.587c.802 0 1.204.401 1.204 1.2zm-5.216 6.667c0 .755-.402 1.156-1.204 1.156h-12.35c-.803 0-1.204-.401-1.204-1.2 0-.712.401-1.066 1.204-1.066h12.35c.802 0 1.204.4 1.204 1.11z"/></g></svg>

<svg width="300" height="240" viewBox="0 0 300 240" fill="none" xmlns="http://www.w3.org/2000/svg">
<rect width="300" height="240" fill="white"/>
<g clip-path="url(#clip0_1908_43972)">
<path d="M208.837 83.2276L184.408 41.0468C182.482 37.7209 177.753 35 173.901 35H125.042C121.189 35 116.462 37.7209 114.536 41.0468L90.1062 83.2276C88.1804 86.5535 88.1804 91.9953 90.1062 95.3213L114.536 137.502C116.462 140.828 121.191 143.549 125.042 143.549H173.901C177.754 143.549 182.482 140.828 184.408 137.502L208.837 95.3213C210.763 91.9953 210.763 86.5535 208.837 83.2276ZM199.025 91.3494L176.05 131.017C175.533 131.91 173.478 133.092 172.445 133.092H126.497C125.464 133.092 123.408 131.91 122.892 131.017L99.9171 91.3494C99.4003 90.4566 99.4003 88.0906 99.9171 87.1994L122.892 47.5319C123.408 46.6391 125.464 45.4569 126.497 45.4569H172.445C173.478 45.4569 175.533 46.6391 176.05 47.5319L199.025 87.1994C199.541 88.0922 199.541 90.4566 199.025 91.3494Z" fill="#00251A"/>
<path d="M149.47 89.9824H113.166V97.6628H149.47V89.9824Z" fill="#00251A"/>
<path d="M149.47 103.757H120.284V111.437H149.47V103.757Z" fill="#00251A"/>
<path d="M149.47 117.533H127.403V125.214H149.47V117.533Z" fill="#00251A"/>
<path d="M88.0739 175.09V175.178C88.0739 175.978 87.672 176.378 86.8699 176.378H51.204C50.4019 176.378 50 175.978 50 175.178V175.09C50 174.29 50.4019 173.889 51.204 173.889H66.7643V166.822C66.7643 166.023 67.1661 165.622 67.9683 165.622H70.1089C70.911 165.622 71.3129 166.023 71.3129 166.822V173.889H86.8732C87.6753 173.889 88.0772 174.29 88.0772 175.09H88.0739ZM63.7313 184.155C61.6349 190.822 58.6938 196.999 54.6356 202.955C54.1894 203.576 53.6547 203.666 52.9854 203.309L51.6026 202.554C50.8891 202.153 50.7546 201.576 51.2007 200.909C54.588 195.709 57.3979 189.62 59.4926 182.777C59.7157 182.021 60.2505 181.755 61.0083 182.021L62.9702 182.688C63.6837 182.911 63.9511 183.444 63.728 184.155H63.7313ZM77.6856 182.422C81.4305 188.866 84.685 195.132 87.3161 201.221C87.6277 201.933 87.4047 202.51 86.6911 202.822L84.9081 203.578C84.1945 203.888 83.6598 203.622 83.3481 202.91C80.5398 196.244 77.4183 190.022 74.2081 184.333C73.8062 183.622 73.985 183.045 74.6543 182.688L76.0814 181.933C76.7507 181.578 77.2854 181.755 77.6873 182.422H77.6856Z" fill="#00251A"/>
<path d="M117.454 166.201C117.275 166.557 117.098 167 116.829 167.535H130.293C131.095 167.535 131.497 167.936 131.497 168.735V168.824C131.497 169.445 131.364 169.846 131.006 170.335C130.026 171.535 128.598 173.001 126.771 174.735H138.854C139.656 174.735 140.058 175.135 140.058 175.935V199.223C140.058 203.934 139.479 204.555 134.172 204.555C133.638 204.555 131.809 204.467 128.777 204.377C127.975 204.333 127.529 203.932 127.529 203.177C127.485 202.421 127.931 202.021 128.777 202.067C131.63 202.155 133.236 202.289 133.682 202.289C135.599 202.289 135.644 202.245 135.644 199.355V194.244H110.943C110.32 197.889 109.026 201.221 106.843 204.421C106.396 205.088 105.773 205.177 105.148 204.688L103.856 203.622C103.277 203.133 103.186 202.6 103.544 201.977C106.264 197.532 107.333 192.244 107.333 183.089V179.488L105.46 180.999C104.791 181.532 104.167 181.4 103.81 180.644L103.363 179.755C103.052 179.088 103.14 178.599 103.721 178.11C107.868 174.643 111.122 170.289 113.484 165.133C113.796 164.466 114.286 164.244 115 164.378L116.65 164.688C117.498 164.867 117.81 165.444 117.452 166.199L117.454 166.201ZM111.301 192.067H120.841V185.445H111.746C111.701 187.845 111.567 189.978 111.299 192.067H111.301ZM120.841 177.001H111.746V183.311H120.841V177.001ZM111.969 174.735H122.178C123.605 173.446 125.209 171.801 127.038 169.713H115.581C114.734 171.136 113.575 172.779 111.969 174.735ZM135.642 177.001H125.209V183.311H135.642V177.001ZM135.642 185.445H125.209V192.067H135.642V185.445Z" fill="#00251A"/>
<path d="M189.143 188.511C189.143 189.178 188.92 189.577 188.341 189.933C185.398 191.755 181.832 193.534 177.686 195.222H194.985C195.787 195.222 196.189 195.622 196.189 196.422C196.189 197.089 195.787 197.444 194.985 197.444H178.98V201.976C178.98 204.553 178.311 204.998 173.139 204.998C171.355 204.998 169.305 204.954 166.941 204.82C166.228 204.776 165.782 204.375 165.737 203.62C165.693 202.864 166.139 202.464 166.986 202.509C169.884 202.598 171.756 202.732 172.648 202.732C174.61 202.732 174.387 202.954 174.387 200.91V197.444H157.088C156.286 197.444 155.884 197.043 155.884 196.244C155.884 195.576 156.286 195.222 157.088 195.222H174.387V194.378C174.387 193.578 174.789 193.178 175.591 193.178H176.839C179.024 192.288 181.432 191.134 184.373 189.579H164.131C163.329 189.579 162.927 189.178 162.927 188.378C162.927 187.845 163.329 187.533 164.131 187.533H187.939C188.741 187.533 189.143 187.889 189.143 188.511ZM159.227 167.978C161.768 167.712 164.755 167.178 168.188 166.511C168.99 166.333 169.481 166.69 169.615 167.401C169.748 168.112 169.436 168.601 168.634 168.733C166.628 169.134 164.578 169.445 162.616 169.755L162.704 172.156H168.277C169.079 172.156 169.481 172.557 169.481 173.356C169.481 173.713 169.079 173.889 168.277 173.889H162.793L162.927 177.133H168.277C169.079 177.133 169.481 177.534 169.481 178.334C169.481 178.688 169.079 178.911 168.277 178.911H163.016L163.15 182.287H188.92L189.009 178.911H183.793C182.99 178.911 182.589 178.51 182.589 177.711C182.589 177.356 182.99 177.133 183.793 177.133H189.097L189.186 173.889H183.791C182.989 173.889 182.587 173.489 182.587 172.689C182.587 172.332 182.989 172.156 183.791 172.156H189.275L189.409 169.044H183.524C182.721 169.044 182.319 168.644 182.319 167.844C182.319 167.267 182.721 166.954 183.524 166.954H192.752C193.554 166.954 194 167.399 193.956 168.199L193.333 182.287H194.76C195.562 182.287 195.964 182.688 195.964 183.488V188.377C195.964 189.176 195.562 189.577 194.76 189.577H192.754C191.952 189.577 191.55 189.176 191.55 188.377V184.333H160.519V188.377C160.519 189.176 160.118 189.577 159.315 189.577H157.309C156.507 189.577 156.105 189.176 156.105 188.377V183.488C156.105 182.688 156.507 182.287 157.309 182.287H158.692L158.113 169.267C158.069 168.511 158.469 168.066 159.227 167.978ZM181.34 167C180.671 167.667 179.869 168.379 178.844 169.178L181.252 170.823C181.921 171.312 182.009 171.889 181.475 172.512L180.94 173.18L180.984 173.224C181.831 173.534 182.009 174.201 181.386 174.823C180.717 175.534 179.87 176.245 178.845 177.045L181.253 178.69C181.923 179.179 181.967 179.712 181.476 180.379L181.342 180.557C180.851 181.18 180.272 181.225 179.603 180.736C178.265 179.758 177.239 179.046 176.572 178.558C175.368 179.269 173.808 180.068 171.98 180.78C171.311 181.046 170.821 180.912 170.33 180.469C169.751 179.936 169.928 179.359 170.776 179.002C171.846 178.513 173.006 177.892 174.254 177.135C172.961 176.38 171.89 175.757 171.044 175.358C170.286 174.957 170.107 174.38 170.642 173.713L171 173.268L170.465 172.779C169.796 172.158 169.93 171.49 170.776 171.134C171.846 170.689 173.006 170.068 174.254 169.267C172.961 168.511 171.89 167.888 171.044 167.489C170.286 167.089 170.151 166.511 170.642 165.844C171 165.355 171.49 165.267 172.158 165.578C173.985 166.377 175.368 167.089 176.437 167.712C177.151 167.134 177.909 166.467 178.755 165.578C179.201 165.045 179.736 164.91 180.405 165.177L180.94 165.399C181.786 165.754 181.965 166.377 181.342 167H181.34ZM171.621 173.09C173.672 174.023 175.278 174.911 176.436 175.578C177.282 174.911 178.263 173.977 179.378 172.689C178.576 172.156 177.684 171.489 176.57 170.733C175.322 171.489 173.672 172.288 171.621 173.09Z" fill="#00251A"/>
<path d="M223.295 170.334C220.931 176.334 219.862 178.468 219.016 180.6C222.27 184.555 223.028 186.956 223.028 190.467C223.028 194.2 221.245 196.111 216.786 196.111C216.117 196.111 215.717 195.756 215.582 195.045C215.449 194.334 215.85 193.889 216.698 193.889H216.342C218.259 193.889 219.017 193.089 219.017 189.801C219.017 186.513 218.125 184.513 215.763 181.401C215.317 180.868 215.272 180.379 215.54 179.756C216.967 176.512 218.527 172.956 219.596 169.222H214.291V203.487C214.291 204.287 213.889 204.688 213.087 204.688H211.572C210.77 204.688 210.368 204.287 210.368 203.487V168.289C210.368 167.489 210.77 167.089 211.572 167.089H222.406C223.208 167.089 223.61 167.489 223.61 168.289V168.822C223.61 169.355 223.522 169.756 223.298 170.333L223.295 170.334ZM248.44 186.156C248.44 186.956 248.038 187.356 247.236 187.356H241.127V199.756C241.127 201.8 240.816 201.756 243.312 201.756C244.739 201.756 244.962 201.756 245.409 200.556C245.587 200.067 245.765 198.111 245.855 194.911C245.899 194.067 246.345 193.667 247.147 193.755L248.886 193.933C249.644 194.021 250.002 194.422 250.002 195.222C249.957 196.554 249.957 197.355 249.823 198.688C249.69 200.421 249.69 202.199 248.218 203.355C247.684 203.8 246.791 203.844 246.212 203.978C245.81 204.066 243.849 204.11 243.181 204.11C237.609 204.11 236.716 203.577 236.716 200.866V187.356H234.131C234.043 196.644 231.144 200.956 222.004 204.423C221.335 204.689 220.8 204.511 220.398 203.89L220.265 203.623C219.819 202.912 220.042 202.335 220.8 202.024C227.353 199.401 229.627 195.668 229.806 187.358H225.659C224.857 187.358 224.455 186.957 224.455 186.158C224.455 185.402 224.857 185.002 225.659 185.002H247.238C248.04 185.002 248.442 185.402 248.442 186.158L248.44 186.156ZM249.065 171.312V177.267C249.065 178.067 248.663 178.468 247.861 178.468H245.81C245.008 178.468 244.606 178.067 244.606 177.267V172.378H228.244V177.267C228.244 178.067 227.842 178.468 227.04 178.468H225.123C224.32 178.468 223.919 178.067 223.919 177.267V171.312C223.919 170.513 224.32 170.112 225.123 170.112H233.728V166.379C233.728 165.579 234.13 165.179 234.932 165.179H237.072C237.875 165.179 238.276 165.579 238.276 166.379V170.112H247.863C248.665 170.112 249.067 170.513 249.067 171.312H249.065ZM243.849 177.979C243.849 178.734 243.447 179.135 242.645 179.135H230.295C229.492 179.135 229.091 178.734 229.091 177.935C229.091 177.223 229.492 176.869 230.295 176.869H242.645C243.447 176.869 243.849 177.269 243.849 177.979Z" fill="#00251A"/>
</g>
<defs>
<clipPath id="clip0_1908_43972">
<rect width="200" height="170" fill="white" transform="translate(50 35)"/>
</clipPath>
</defs>
</svg>
